X: 1
T: Homage A Edmond Parizeau
R: reel
M: 4/4
L: 1/8
K: Amaj
ABcd[|(.ezz)(.e zz)(.ez|z)(.ezz)ef ed|c2AB c2AB|c2e2 d2B2|
B4 BABc|B2d2 c2B2|efed cAB2|c4 ABcd|
eAAe AAeA|AAeA (3efe ed|ceAB cAeA|ceAc dedc|
B4 BABc|e2c2B2A2|Afed cdBc|A2c2 (3BcB A2|]
[|a4 f4|d3 A d2 fe|e4 efec|A2c2 (3BcB A2|B4 BABc|
e2d2c2B2|cBAc ecef|e2c2 (3BcB A2|
a4 f4|d3 A d2 fe|e4 efec|A2c2 (3BcB A2|
B4 BABc|e2d2c2B2|Afed cdBc|A4|]
